src/assets/icons/close.svg

<svg fill="none" height="32" viewBox="0 0 32 32" width="32" xmlns="http://www.w3.org/2000/svg"><path d="m18.64 16.0005 4.9498-4.9498c.5469-.5469.5469-1.43358 0-1.97962l-.6599-.65988c-.547-.54707-1.4337-.54707-1.9797 0l-4.9497 4.9496-4.9498-4.95062c-.5469-.54691-1.43358-.54691-1.97962 0l-.6609.65987c-.54691.54708-.54691 1.43375 0 1.97975l4.95062 4.9507-4.9496 4.9497c-.54707.547-.54707 1.4337 0 1.9797l.65988.6599c.5469.5469 1.43352.5469 1.97962 0l4.9498-4.9498 4.9497 4.9498c.547.5469 1.4337.5469 1.9797 0l.6599-.6599c.5469-.547.5469-1.4337 0-1.9797z" fill="#2e4053"/></svg>

<svg width="32" height="32" viewBox="0 0 32 32" fill="none" xmlns="http://www.w3.org/2000/svg">
<path d="M18.64 16.0005L23.5898 11.0507C24.1367 10.5038 24.1367 9.61712 23.5898 9.07108L22.9299 8.4112C22.3829 7.86413 21.4962 7.86413 20.9502 8.4112L16.0005 13.3608L11.0507 8.41018C10.5038 7.86327 9.61712 7.86327 9.07108 8.41018L8.41018 9.07005C7.86327 9.61713 7.86327 10.5038 8.41018 11.0498L13.3608 16.0005L8.4112 20.9502C7.86413 21.4972 7.86413 22.3839 8.4112 22.9299L9.07108 23.5898C9.61798 24.1367 10.5046 24.1367 11.0507 23.5898L16.0005 18.64L20.9502 23.5898C21.4972 24.1367 22.3839 24.1367 22.9299 23.5898L23.5898 22.9299C24.1367 22.3829 24.1367 21.4962 23.5898 20.9502L18.64 16.0005Z" fill="#2E4053"/>
</svg>
